X: 104
T:Tori Barone's Jig
C:Bill Quern 2001
M:6/8
R:Jig
L:1/8
K:G
"G"DGA B3|Bdc BAG|DGA "Bb"_B3|_Bdc BAG|
DGA "G"B3|fgf d2 c|"Bb"_Bdc BAG|"D"FAF "G"G3:|
|:"G"g3 "F"=f3|"C"c_Bc "D"d3|"Bb"_BAB "C"cBc|"D"d3 f3|
"G"gag "F"=f3|"C"c_Bc "D"d3|"Bb"_Bdc BAG|"D"FAF "G"G3:|
